X: 25723
T: Mary Ellen
R: waltz
M: 3/4
K: Dmajor
Ad|:f2 ag fe|df A3 d|B2 ed cB|c2 A2 AF|
G2 B3 e|A3 c de|fa gf ed|e3 A ag|
f2 g2 ge|fe d2 dc|B2 c2 d2|cA F3 A|
G2 B3 e|A2 e3 g|fa gf ge|1 d4 Ad:|2 d3 e fg||
|:a2 A2 df|fg g2 ef|g2 A2 ce|ef f2 de|
f3 d gf|eB B3 d|dc cB BA|A3 B G2|
F2 A3 d|G2 B3 e|A2 e2 g2|ge f3 g|
a2 f3 d|ag g2 ef|gf ge cA|1 d3 e fg:|2 d4||

